;FLAVOR:Marlin
;TIME:1020
;Filament used: 0.486268m
;Layer height: 0.16
;MINX:91.156
;MINY:91.156
;MINZ:0.2
;MAXX:128.844
;MAXY:128.844
;MAXZ:11.4
;Generated with Cura_SteamEngine main
M82 ;absolute extrusion mode
; Ender 3 Custom Start G-code
G92 E0 ; Reset Extruder
G28 ; Home all axes
M104 S175 ; Start heating up the nozzle most of the way
M190 S61 ; Start heating the bed, wait until target temperature reached
M109 S210 ; Finish heating the nozzle
G1 Z2.0 F3000 ; Move Z Axis up little to prevent scratching of Heat Bed
G1 X0.1 Y20 Z0.3 F5000.0 ; Move to start position
G1 X0.1 Y200.0 Z0.3 F1500.0 E15 ; Draw the first line
G1 X0.4 Y200.0 Z0.3 F5000.0 ; Move to side a little
G1 X0.4 Y20 Z0.3 F1500.0 E30 ; Draw the second line
G92 E0 ; Reset Extruder
G1 Z2.0 F3000 ; Move Z Axis up little to prevent scratching of Heat Bed
G1 X5 Y20 Z0.3 F5000.0 ; Move over to prevent blob squish
G92 E0
G92 E0
G1 F1500 E-6.5
;LAYER_COUNT:61
;LAYER:0
M107
G0 F6000 X94.441 Y94.442 Z0.2
G0 X91.157 Y102.799
;TYPE:SKIRT
G1 F1500 E0
G1 F1200 X91.167 Y102.117 E0.02269
G1 X91.221 Y101.18 E0.0539
G1 X91.354 Y100.252 E0.08508
G1 X91.566 Y99.338 E0.11629
G1 X91.855 Y98.446 E0.14748
G1 X92.219 Y97.582 E0.17866
G1 X92.655 Y96.752 E0.20984
G1 X93.16 Y95.961 E0.24106
G1 X93.731 Y95.217 E0.27225
G1 X94.441 Y94.442 E0.30721
G1 X95.191 Y93.754 E0.34106
G1 X95.933 Y93.18 E0.37226
G1 X96.722 Y92.673 E0.40345
G1 X97.55 Y92.234 E0.43462
G1 X98.414 Y91.867 E0.46585
G1 X99.305 Y91.575 E0.49703
G1 X100.218 Y91.361 E0.52822
G1 X101.146 Y91.224 E0.55942
G1 X102.081 Y91.168 E0.59057
G1 X102.836 Y91.156 E0.61569
G1 X117.019 Y91.156 E1.08742
G1 X117.878 Y91.167 E1.11599
G1 X118.815 Y91.22 E1.1472
G1 X119.743 Y91.353 E1.17839
G1 X120.657 Y91.565 E1.20959
G1 X121.549 Y91.853 E1.24077
G1 X122.414 Y92.217 E1.27198
G1 X123.244 Y92.653 E1.30316
G1 X124.035 Y93.158 E1.33438
G1 X124.779 Y93.728 E1.36555
G1 X125.472 Y94.36 E1.39675
G1 X126.139 Y95.078 E1.42934
G1 X126.77 Y95.882 E1.46333
G1 X127.284 Y96.667 E1.49454
G1 X127.73 Y97.492 E1.52574
G1 X128.103 Y98.353 E1.55694
G1 X128.402 Y99.242 E1.58814
G1 X128.624 Y100.153 E1.61933
G1 X128.767 Y101.08 E1.65052
G1 X128.833 Y102.105 E1.68469
G1 X128.844 Y102.81 E1.70814
G1 X128.843 Y117.133 E2.18452
G1 X128.833 Y117.871 E2.20907
G1 X128.78 Y118.807 E2.24025
G1 X128.648 Y119.736 E2.27146
G1 X128.437 Y120.65 E2.30266
G1 X128.149 Y121.542 E2.33384
G1 X127.786 Y122.407 E2.36504
G1 X127.351 Y123.238 E2.39623
G1 X126.847 Y124.029 E2.42743
G1 X126.277 Y124.773 E2.4586
G1 X125.559 Y125.557 E2.49396
G1 X124.809 Y126.246 E2.52783
G1 X124.067 Y126.82 E2.55904
G1 X123.278 Y127.327 E2.59023
G1 X122.45 Y127.766 E2.6214
G1 X121.586 Y128.133 E2.65262
G1 X120.695 Y128.425 E2.68381
G1 X119.782 Y128.639 E2.715
G1 X118.854 Y128.776 E2.7462
G1 X117.919 Y128.832 E2.77735
G1 X117.164 Y128.844 E2.80246
G1 X102.824 Y128.843 E3.27942
G1 X102.123 Y128.833 E3.30273
G1 X101.187 Y128.78 E3.33391
G1 X100.258 Y128.647 E3.36513
G1 X99.345 Y128.435 E3.3963
G1 X98.452 Y128.147 E3.42751
G1 X97.588 Y127.783 E3.45869
G1 X96.757 Y127.347 E3.48991
G1 X95.967 Y126.842 E3.52109
G1 X95.223 Y126.272 E3.55226
G1 X94.476 Y125.591 E3.58588
G1 X93.785 Y124.845 E3.6197
G1 X93.208 Y124.105 E3.65092
G1 X92.697 Y123.319 E3.6821
G1 X92.255 Y122.492 E3.71328
G1 X91.884 Y121.631 E3.74447
G1 X91.589 Y120.741 E3.77565
G1 X91.37 Y119.829 E3.80685
G1 X91.23 Y118.901 E3.83806
G1 X91.168 Y117.905 E3.87125
G1 X91.156 Y117.122 E3.8973
G1 X91.157 Y102.799 E4.37368
G0 F6000 X91.557 Y102.805
G1 F1200 X91.567 Y102.123 E4.39637
G1 X91.621 Y101.203 E4.42702
G1 X91.754 Y100.293 E4.45761
G1 X91.965 Y99.396 E4.48826
G1 X92.254 Y98.522 E4.51888
G1 X92.617 Y97.676 E4.5495
G1 X93.052 Y96.865 E4.5801
G1 X93.556 Y96.095 E4.61071
G1 X94.125 Y95.371 E4.64134
G1 X94.783 Y94.671 E4.67329
G1 X95.461 Y94.049 E4.7039
G1 X96.191 Y93.488 E4.73452
G1 X96.967 Y92.992 E4.76515
G1 X97.783 Y92.566 E4.79577
G1 X98.633 Y92.212 E4.82639
G1 X99.511 Y91.934 E4.85702
G1 X100.409 Y91.732 E4.88764
G1 X101.322 Y91.609 E4.91828
G1 X102.088 Y91.568 E4.94379
G1 X102.836 Y91.556 E4.96867
G1 X117.019 Y91.556 E5.4404
G1 X117.873 Y91.567 E5.46881
G1 X118.792 Y91.62 E5.49942
G1 X119.703 Y91.753 E5.53004
G1 X120.599 Y91.964 E5.56066
G1 X121.473 Y92.252 E5.59127
G1 X122.32 Y92.615 E5.62192
G1 X123.131 Y93.05 E5.65253
G1 X123.902 Y93.554 E5.68316
G1 X124.626 Y94.122 E5.71377
G1 X125.298 Y94.752 E5.74441
G1 X125.887 Y95.405 E5.77366
G1 X126.455 Y96.129 E5.80426
G1 X126.958 Y96.901 E5.83491
G1 X127.392 Y97.713 E5.86553
G1 X127.754 Y98.559 E5.89614
G1 X128.041 Y99.434 E5.92676
G1 X128.251 Y100.33 E5.95737
G1 X128.382 Y101.242 E5.98802
G1 X128.433 Y102.112 E6.017
G1 X128.444 Y102.81 E6.04022
G1 X128.443 Y117.128 E6.51644
G1 X128.433 Y117.866 E6.54099
G1 X128.381 Y118.785 E6.5716
G1 X128.249 Y119.696 E6.60222
G1 X128.038 Y120.592 E6.63284
G1 X127.75 Y121.467 E6.66348
G1 X127.388 Y122.313 E6.69408
G1 X126.954 Y123.125 E6.7247
G1 X126.451 Y123.896 E6.75532
G1 X125.882 Y124.62 E6.78595
G1 X125.272 Y125.279 E6.81582
G1 X124.539 Y125.951 E6.84889
G1 X123.809 Y126.512 E6.87951
G1 X123.033 Y127.008 E6.91014
G1 X122.217 Y127.434 E6.94076
G1 X121.367 Y127.788 E6.97139
G1 X120.489 Y128.066 E7.00202
G1 X119.591 Y128.268 E7.03263
G1 X118.678 Y128.391 E7.06327
G1 X117.912 Y128.432 E7.08879
G1 X117.164 Y128.444 E7.11367
G1 X102.83 Y128.443 E7.59042
G1 X102.129 Y128.433 E7.61374
G1 X101.21 Y128.38 E7.64435
G1 X100.299 Y128.247 E7.67497
G1 X99.403 Y128.036 E7.70559
G1 X98.528 Y127.748 E7.73623
G1 X97.682 Y127.385 E7.76685
G1 X96.871 Y126.95 E7.79746
G1 X96.1 Y126.446 E7.82809
G1 X95.376 Y125.877 E7.85872
G1 X94.704 Y125.249 E7.88931
G1 X94.079 Y124.573 E7.91993
G1 X93.515 Y123.846 E7.95054
G1 X93.016 Y123.072 E7.98117
G1 X92.586 Y122.258 E8.01178
G1 X92.228 Y121.409 E8.04243
G1 X91.946 Y120.533 E8.07304
G1 X91.74 Y119.636 E8.10365
G1 X91.614 Y118.724 E8.13427
G1 X91.567 Y117.898 E8.16179
G1 X91.557 Y117.299 E8.18171
G1 X91.557 Y102.805 E8.66379
G0 F6000 X91.957 Y102.81
G1 F1200 X91.967 Y102.128 E8.68647
G1 X92.02 Y101.227 E8.71649
G1 X92.153 Y100.334 E8.74652
G1 X92.364 Y99.456 E8.77655
G1 X92.652 Y98.6 E8.80659
G1 X93.015 Y97.773 E8.83663
G1 X93.449 Y96.981 E8.86667
G1 X93.952 Y96.231 E8.89671
G1 X94.519 Y95.528 E8.92675
G1 X95.066 Y94.954 E8.95312
G1 X95.732 Y94.344 E8.98316
G1 X96.449 Y93.795 E9.01319
G1 X97.213 Y93.313 E9.04324
G1 X98.016 Y92.899 E9.07328
G1 X98.852 Y92.559 E9.1033
G1 X99.715 Y92.293 E9.13334
G1 X100.598 Y92.105 E9.16336
G1 X101.495 Y91.996 E9.19342
G1 X102.095 Y91.968 E9.2134
G1 X102.836 Y91.956 E9.23805
G1 X117.019 Y91.956 E9.70977
G1 X117.867 Y91.967 E9.73798
G1 X118.769 Y92.02 E9.76803
G1 X119.662 Y92.152 E9.79806
G1 X120.54 Y92.363 E9.82809
G1 X121.396 Y92.651 E9.85813
G1 X122.223 Y93.013 E9.88816
G1 X123.015 Y93.447 E9.91819
G1 X123.766 Y93.949 E9.94824
G1 X124.469 Y94.516 E9.97828
G1 X125.119 Y95.143 E10.00832
G1 X125.584 Y95.665 E10.03157
G1 X126.14 Y96.376 E10.06159
G1 X126.631 Y97.134 E10.09163
G1 X127.053 Y97.932 E10.12165
G1 X127.403 Y98.765 E10.1517
G1 X127.679 Y99.625 E10.18174
G1 X127.876 Y100.506 E10.21177
G1 X127.996 Y101.401 E10.2418
G1 X128.033 Y102.119 E10.26571
G1 X128.044 Y102.81 E10.2887
G1 X128.043 Y117.122 E10.76472
G1 X128.033 Y117.86 E10.78927
G1 X127.981 Y118.762 E10.81932
G1 X127.849 Y119.655 E10.84934
G1 X127.639 Y120.534 E10.8794
G1 X127.352 Y121.39 E10.90943
G1 X126.99 Y122.217 E10.93945
G1 X126.557 Y123.01 E10.96951
G1 X126.055 Y123.76 E10.99952
G1 X125.488 Y124.464 E11.02959
G1 X124.934 Y125.046 E11.05631
G1 X124.268 Y125.656 E11.08635
G1 X123.551 Y126.205 E11.11639
G1 X122.787 Y126.687 E11.14643
G1 X121.984 Y127.101 E11.17648
G1 X121.148 Y127.441 E11.2065
G1 X120.285 Y127.707 E11.23653
G1 X119.402 Y127.895 E11.26656
G1 X118.505 Y128.004 E11.29661
G1 X117.905 Y128.032 E11.31659
G1 X117.164 Y128.044 E11.34124
G1 X102.836 Y128.043 E11.81779
G1 X102.135 Y128.033 E11.84111
G1 X101.233 Y127.98 E11.87116
G1 X100.34 Y127.848 E11.90119
G1 X99.461 Y127.637 E11.93125
G1 X98.605 Y127.349 E11.96129
G1 X97.778 Y126.987 E11.99132
G1 X96.986 Y126.553 E12.02136
G1 X96.236 Y126.05 E12.05139
G1 X95.533 Y125.483 E12.08143
G1 X94.985 Y124.965 E12.10651
G1 X94.373 Y124.302 E12.13652
G1 X93.821 Y123.587 E12.16656
G1 X93.335 Y122.825 E12.19662
G1 X92.918 Y122.024 E12.22666
G1 X92.574 Y121.189 E12.2567
G1 X92.305 Y120.327 E12.28673
G1 X92.113 Y119.445 E12.31675
G1 X92 Y118.549 E12.34679
G1 X91.967 Y117.891 E12.3687
G1 X91.957 Y117.292 E12.38863
G1 X91.957 Y102.81 E12.8703
G1 F1500 E6.3703
;MESH:2x2 Lego.stl
G0 F6000 X101.491 Y102.81
G0 X103.649 Y117.019
;TYPE:WALL-OUTER
G1 F1500 E12.8703
G1 F943 X103.432 Y116.908 E12.88062
G1 F1057.3 X103.092 Y116.554 E12.89915
G1 F963.9 X102.975 Y116.351 E12.90885
G1 F877.5 X102.975 Y114.464 E12.99468
G1 F812.2 X103.004 Y114.26 E13.0048
G1 F754.7 X103.127 Y114.113 E13.01494
G1 X103.127 Y113.912 E13.02557
G1 F760.7 X103.016 Y113.781 E13.03458
G1 F816.3 X102.977 Y113.619 E13.04272
G1 F871.1 X102.977 Y113.367 E13.05427
G1 F869.6 X102.977 Y113.115 E13.06584
G1 F866.4 X102.977 Y112.863 E13.07744
G1 F864.9 X102.977 Y112.611 E13.08907
G1 F863.3 X102.977 Y112.359 E13.10072
G1 F861.8 X102.977 Y112.107 E13.1124
G1 F858.7 X102.977 Y111.855 E13.12411
G1 F857.1 X102.977 Y111.603 E13.13584
G1 F855.6 X102.977 Y111.351 E13.1476
G1 F854.1 X102.977 Y111.099 E13.15937
G1 F851.1 X102.977 Y110.847 E13.17119
G1 F849.6 X102.977 Y110.595 E13.18303
G1 F848.1 X102.977 Y110.343 E13.19489
G1 F846.6 X102.977 Y110.091 E13.20677
G1 F843.6 X102.976 Y109.839 E13.21869
G1 F842.1 X102.976 Y109.587 E13.23064
G1 F840.6 X102.976 Y109.335 E13.2426
G1 F839.2 X102.976 Y109.083 E13.25459
G1 F837.7 X102.976 Y108.831 E13.26659
G1 F834.8 X102.976 Y108.579 E13.27864
G1 F833.3 X102.976 Y108.327 E13.29071
G1 F831.9 X102.976 Y108.075 E13.3028
G1 F830.4 X102.976 Y107.823 E13.31491
G1 F827.6 X102.976 Y107.571 E13.32707
G1 F826.2 X102.976 Y107.319 E13.33924
G1 F824.7 X102.976 Y107.067 E13.35144
G1 F823.3 X102.976 Y106.815 E13.36365
G1 F820.5 X102.976 Y106.563 E13.37591
G1 F819.1 X102.975 Y106.311 E13.38819
G1 F784.3 X103.126 Y106.079 E13.40228
G1 F752.4 X103.125 Y105.908 E13.41135
G1 F772.9 X103.004 Y105.714 E13.42315
G1 F831.9 X102.977 Y105.584 E13.42952
G1 F869.6 X102.979 Y104.616 E13.47396
G1 F864.9 X102.981 Y103.648 E13.51863
G1 F943 X103.092 Y103.432 E13.52891
G1 F1057.3 X103.446 Y103.092 E13.54743
G1 F963.9 X103.649 Y102.975 E13.55714
G1 F877.5 X105.536 Y102.975 E13.64296
G1 F812.2 X105.74 Y103.004 E13.65309
G1 F754.7 X105.887 Y103.127 E13.66323
G1 X106.088 Y103.127 E13.67385
G1 F760.7 X106.219 Y103.016 E13.68286
G1 F816.3 X106.381 Y102.977 E13.69101
G1 F871.1 X106.633 Y102.977 E13.70256
G1 F869.6 X106.885 Y102.977 E13.71412
G1 F866.4 X107.137 Y102.977 E13.72573
G1 F864.9 X107.389 Y102.977 E13.73736
G1 F863.3 X107.641 Y102.977 E13.74901
G1 F861.8 X107.893 Y102.977 E13.76068
G1 F858.7 X108.145 Y102.977 E13.7724
G1 F857.1 X108.397 Y102.977 E13.78413
G1 F855.6 X108.649 Y102.977 E13.79588
G1 F854.1 X108.901 Y102.977 E13.80766
G1 F851.1 X109.153 Y102.977 E13.81948
G1 F849.6 X109.405 Y102.977 E13.83132
G1 F848.1 X109.657 Y102.977 E13.84318
G1 F846.6 X109.909 Y102.977 E13.85506
G1 F843.6 X110.161 Y102.976 E13.86698
G1 F842.1 X110.413 Y102.976 E13.87893
G1 F840.6 X110.665 Y102.976 E13.89089
G1 F839.2 X110.917 Y102.976 E13.90288
G1 F837.7 X111.169 Y102.976 E13.91488
G1 F834.8 X111.421 Y102.976 E13.92693
G1 F833.3 X111.673 Y102.976 E13.939
G1 F831.9 X111.925 Y102.976 E13.95109
G1 F830.4 X112.177 Y102.976 E13.9632
G1 F827.6 X112.429 Y102.976 E13.97536
G1 F826.2 X112.681 Y102.976 E13.98753
G1 F824.7 X112.933 Y102.976 E13.99972
G1 F823.3 X113.185 Y102.976 E14.01194
G1 F820.5 X113.437 Y102.976 E14.0242
G1 F819.1 X113.689 Y102.975 E14.03648
G1 F784.3 X113.921 Y103.125 E14.05054
G1 F752.4 X114.092 Y103.124 E14.05961
G1 F772.9 X114.286 Y103.004 E14.07139
G1 F831.9 X114.416 Y102.977 E14.07776
G1 F869.6 X115.384 Y102.979 E14.12219
G1 F864.9 X116.352 Y102.981 E14.16686
G1 F943 X116.568 Y103.092 E14.17714
G1 F1113.7 X116.841 Y103.378 E14.19131
G1 F1088.4 X116.925 Y103.44 E14.19514
G1 F926.6 X117.026 Y103.62 E14.20403
G1 F869.6 X117.023 Y105.583 E14.29413
G1 F820.5 X116.988 Y105.736 E14.30176
G1 F764.3 X116.875 Y105.883 E14.31144
G1 F753.5 X116.874 Y106.088 E14.3223
G1 X116.988 Y106.216 E14.33138
G1 F810.8 X117.024 Y106.429 E14.34201
G1 F877.5 X117.024 Y106.743 E14.35629
G1 F875.9 X117.024 Y107.057 E14.3706
G1 F874.3 X117.024 Y107.371 E14.38494
G1 F872.7 X117.024 Y107.685 E14.3993
G1 F871.1 X117.024 Y107.999 E14.41368
G1 F869.6 X117.024 Y108.313 E14.42809
G1 F866.4 X117.024 Y108.627 E14.44256
G1 F864.9 X117.024 Y108.941 E14.45705
G1 F863.3 X117.024 Y109.255 E14.47157
G1 F861.8 X117.024 Y109.569 E14.48611
G1 F860.2 X117.024 Y109.883 E14.50068
G1 F858.7 X117.024 Y110.197 E14.51527
G1 F857.1 X117.024 Y110.511 E14.52989
G1 F855.6 X117.024 Y110.825 E14.54454
G1 F854.1 X117.024 Y111.139 E14.55922
G1 F852.6 X117.024 Y111.453 E14.57391
G1 F851.1 X117.024 Y111.767 E14.58864
G1 F848.1 X117.024 Y112.081 E14.60342
G1 F846.6 X117.024 Y112.395 E14.61822
G1 F845.1 X117.024 Y112.709 E14.63305
G1 F843.6 X117.024 Y113.023 E14.64791
G1 F842.1 X117.024 Y113.337 E14.66279
G1 F840.6 X117.024 Y113.651 E14.6777
G1 F793.4 X116.875 Y113.921 E14.69321
G1 F751.2 X116.876 Y114.092 E14.7023
G1 F783 X117.024 Y114.305 E14.71552
G1 F820.5 X117.024 Y114.576 E14.7287
G1 F826.2 X117.024 Y114.847 E14.74179
G1 F833.3 X117.024 Y115.118 E14.75477
G1 F839.2 X117.024 Y115.389 E14.76766
G1 F845.1 X117.025 Y115.66 E14.78046
G1 F852.6 X117.025 Y115.931 E14.79315
G1 F858.7 X117.025 Y116.202 E14.80574
G1 F866.4 X117.025 Y116.473 E14.81823
G1 F872.7 X117.025 Y116.744 E14.83062
G1 F1012.7 X116.79 Y116.898 E14.84169
G1 F1200 X114.3 Y116.9 E14.92451
G1 X114.201 Y116.875 E14.92791
G1 X114.118 Y116.754 E14.93279
G1 X113.882 Y116.754 E14.94064
G1 X113.858 Y116.824 E14.9431
G1 X113.735 Y116.898 E14.94787
G1 X113.465 Y116.898 E14.95685
G1 F1197 X113.195 Y116.898 E14.96586
G1 F1194 X112.925 Y116.898 E14.97488
G1 F1191.1 X112.655 Y116.898 E14.98393
G1 F1188.1 X112.385 Y116.898 E14.993
G1 F1185.2 X112.115 Y116.898 E15.00209
G1 F1182.3 X111.845 Y116.898 E15.01121
G1 F1179.4 X111.575 Y116.898 E15.02034
G1 F1176.5 X111.305 Y116.898 E15.0295
G1 F1173.6 X111.035 Y116.898 E15.03869
G1 F1170.7 X110.765 Y116.898 E15.04789
G1 F1167.9 X110.495 Y116.898 E15.05712
G1 F1165 X110.225 Y116.898 E15.06637
G1 F1162.2 X109.955 Y116.899 E15.07564
G1 F1156.6 X109.685 Y116.899 E15.08496
G1 F1153.8 X109.415 Y116.899 E15.0943
G1 F1151.1 X109.145 Y116.899 E15.10366
G1 F1148.3 X108.875 Y116.899 E15.11304
G1 F1145.6 X108.605 Y116.899 E15.12245
G1 F1142.9 X108.335 Y116.899 E15.13188
G1 F1140.1 X108.065 Y116.899 E15.14133
G1 F1137.4 X107.795 Y116.899 E15.1508
G1 F1134.8 X107.525 Y116.899 E15.1603
G1 F1132.1 X107.255 Y116.899 E15.16982
G1 F1129.4 X106.985 Y116.899 E15.17936
G1 F1126.8 X106.715 Y116.899 E15.18893
G1 F1124.1 X106.445 Y116.899 E15.19851
G1 F1121.5 X106.175 Y116.9 E15.20812
G1 F1083.5 X106.105 Y116.786 E15.21305
G1 F1048 X105.879 Y116.786 E15.22166
G1 F952.4 X105.601 Y117.019 E15.23686
G1 F869.6 X104.625 Y117.019 E15.28165
G1 F864.9 X103.649 Y117.019 E15.3267
G1 F1500 E8.8267
G0 F6000 X103.588 Y117.231
G0 X105.666 Y117.344
G1 F1500 E15.3267
G0 F6000 X105.666 Y117.566
G1 F1010.5 X106.102 Y117.644 E15.34419
G1 F1200 X117.641 Y117.641 E15.72798
G1 X117.644 Y117.189 E15.74301
G1 F1012.7 X117.57 Y116.794 E15.75885
G1 F877.5 X117.571 Y114.463 E15.86487
G1 F842.1 X117.521 Y114.034 E15.88534
G1 F840.6 X117.569 Y113.63 E15.90466
G1 F874.3 X117.569 Y111.23 E16.01422
G1 F875.9 X117.57 Y108.83 E16.12358
G1 F877.5 X117.57 Y106.43 E16.23274
G1 F810.8 X117.526 Y105.983 E16.25485
G1 F809.4 X117.569 Y105.63 E16.27238
G1 F875.9 X117.57 Y104.663 E16.31644
G1 F879.1 X117.572 Y103.696 E16.36035
G1 F935.7 X117.603 Y103.332 E16.37593
G1 F1088.4 X117.644 Y103.057 E16.38612
G1 F1200 X117.641 Y102.359 E16.40934
G1 X117.001 Y102.356 E16.43063
G1 F1113.7 X116.667 Y102.388 E16.44265
G1 F943 X116.428 Y102.434 E16.45295
G1 F864.9 X115.398 Y102.433 E16.50049
G1 F869.6 X114.368 Y102.431 E16.54776
G1 F840.6 X113.974 Y102.48 E16.56661
