;FLAVOR:Marlin
;TIME:1905
;Filament used: 0.902461m
;Layer height: 0.16
;MINX:83.155
;MINY:91.157
;MINZ:0.2
;MAXX:136.843
;MAXY:128.843
;MAXZ:11.4
;Generated with Cura_SteamEngine main
M82 ;absolute extrusion mode
; Ender 3 Custom Start G-code
G92 E0 ; Reset Extruder
G28 ; Home all axes
M104 S175 ; Start heating up the nozzle most of the way
M190 S61 ; Start heating the bed, wait until target temperature reached
M109 S210 ; Finish heating the nozzle
G1 Z2.0 F3000 ; Move Z Axis up little to prevent scratching of Heat Bed
G1 X0.1 Y20 Z0.3 F5000.0 ; Move to start position
G1 X0.1 Y200.0 Z0.3 F1500.0 E15 ; Draw the first line
G1 X0.4 Y200.0 Z0.3 F5000.0 ; Move to side a little
G1 X0.4 Y20 Z0.3 F1500.0 E30 ; Draw the second line
G92 E0 ; Reset Extruder
G1 Z2.0 F3000 ; Move Z Axis up little to prevent scratching of Heat Bed
G1 X5 Y20 Z0.3 F5000.0 ; Move over to prevent blob squish
G92 E0
G92 E0
G1 F1500 E-6.5
;LAYER_COUNT:67
;LAYER:0
M107
G0 F6000 X87.064 Y93.846 Z0.2
G0 X83.159 Y102.703
;TYPE:SKIRT
G1 F1500 E0
G1 F1200 X83.169 Y102.07 E0.02106
G1 X83.224 Y101.134 E0.05224
G1 X83.358 Y100.206 E0.08343
G1 X83.571 Y99.292 E0.11464
G1 X83.861 Y98.4 E0.14584
G1 X84.226 Y97.536 E0.17703
G1 X84.663 Y96.707 E0.2082
G1 X85.17 Y95.917 E0.23942
G1 X85.741 Y95.174 E0.27059
G1 X86.374 Y94.482 E0.30178
G1 X87.064 Y93.846 E0.33299
G1 X87.89 Y93.21 E0.36767
G1 X88.676 Y92.699 E0.39885
G1 X89.503 Y92.256 E0.43005
G1 X90.365 Y91.886 E0.46125
G1 X91.255 Y91.59 E0.49245
G1 X92.167 Y91.371 E0.52364
G1 X93.094 Y91.231 E0.55483
G1 X93.928 Y91.173 E0.58263
G1 X94.592 Y91.157 E0.60472
G1 X125.181 Y91.158 E1.62212
G1 X125.858 Y91.168 E1.64464
G1 X126.795 Y91.222 E1.67585
G1 X127.723 Y91.355 E1.70703
G1 X128.637 Y91.567 E1.73824
G1 X129.529 Y91.856 E1.76943
G1 X130.393 Y92.22 E1.80061
G1 X131.074 Y92.57 E1.82608
G1 X131.879 Y93.053 E1.8573
G1 X132.639 Y93.602 E1.88848
G1 X133.35 Y94.214 E1.91969
G1 X134.006 Y94.884 E1.95087
G1 X134.602 Y95.608 E1.98206
G1 X135.135 Y96.38 E2.01327
G1 X135.6 Y97.195 E2.04447
G1 X135.994 Y98.046 E2.07567
G1 X136.314 Y98.927 E2.10684
G1 X136.557 Y99.833 E2.13804
G1 X136.723 Y100.756 E2.16923
G1 X136.821 Y102.007 E2.21097
G1 X136.843 Y103.065 E2.24616
G1 X136.841 Y117.222 E2.71703
G1 X136.831 Y117.914 E2.74005
G1 X136.777 Y118.85 E2.77123
G1 X136.644 Y119.779 E2.80244
G1 X136.433 Y120.692 E2.83361
G1 X136.144 Y121.585 E2.86483
G1 X135.78 Y122.449 E2.89601
G1 X135.344 Y123.279 E2.92719
G1 X134.839 Y124.07 E2.95841
G1 X134.268 Y124.814 E2.9896
G1 X133.636 Y125.507 E3.02079
G1 X132.948 Y126.144 E3.05198
G1 X132.164 Y126.75 E3.08494
G1 X131.381 Y127.267 E3.11614
G1 X130.557 Y127.714 E3.14732
G1 X129.698 Y128.09 E3.17851
G1 X128.81 Y128.391 E3.2097
G1 X127.899 Y128.616 E3.24091
G1 X126.973 Y128.762 E3.27209
G1 X126.072 Y128.827 E3.30213
G1 X125.408 Y128.843 E3.32422
G1 X94.819 Y128.842 E4.34162
G1 X94.142 Y128.832 E4.36414
G1 X93.205 Y128.778 E4.39535
G1 X92.277 Y128.645 E4.42653
G1 X91.363 Y128.433 E4.45774
G1 X90.471 Y128.144 E4.48893
G1 X89.607 Y127.78 E4.52011
G1 X88.926 Y127.43 E4.54558
G1 X88.121 Y126.947 E4.5768
G1 X87.361 Y126.398 E4.60798
G1 X86.65 Y125.786 E4.63919
G1 X85.994 Y125.116 E4.67037
G1 X85.398 Y124.392 E4.70156
G1 X84.865 Y123.62 E4.73277
G1 X84.4 Y122.805 E4.76397
G1 X84.006 Y121.954 E4.79517
G1 X83.686 Y121.073 E4.82634
G1 X83.443 Y120.167 E4.85754
G1 X83.277 Y119.244 E4.88873
G1 X83.179 Y117.985 E4.93073
G1 X83.155 Y116.665 E4.97464
G1 X83.159 Y102.703 E5.43902
G0 F6000 X83.559 Y102.71
G1 F1200 X83.569 Y102.077 E5.46008
G1 X83.624 Y101.158 E5.4907
G1 X83.758 Y100.247 E5.52132
G1 X83.97 Y99.351 E5.55195
G1 X84.26 Y98.477 E5.58258
G1 X84.624 Y97.631 E5.61321
G1 X85.06 Y96.821 E5.6438
G1 X85.565 Y96.051 E5.67443
G1 X86.135 Y95.328 E5.70505
G1 X86.766 Y94.657 E5.73569
G1 X87.452 Y94.043 E5.76631
G1 X88.122 Y93.536 E5.79425
G1 X88.895 Y93.035 E5.82489
G1 X89.707 Y92.602 E5.8555
G1 X90.555 Y92.242 E5.88614
G1 X91.43 Y91.956 E5.91676
G1 X92.327 Y91.748 E5.94738
G1 X93.238 Y91.618 E5.97799
G1 X93.941 Y91.572 E6.00142
G1 X94.592 Y91.557 E6.02308
G1 X125.176 Y91.558 E7.04031
G1 X125.853 Y91.568 E7.06283
G1 X126.772 Y91.622 E7.09345
G1 X127.683 Y91.755 E7.12407
G1 X128.579 Y91.966 E7.15468
G1 X129.453 Y92.255 E7.1853
G1 X130.299 Y92.618 E7.21592
G1 X130.883 Y92.922 E7.23782
G1 X131.673 Y93.396 E7.26846
G1 X132.418 Y93.937 E7.29908
G1 X133.113 Y94.541 E7.32971
G1 X133.753 Y95.202 E7.36031
G1 X134.333 Y95.917 E7.39093
G1 X134.85 Y96.679 E7.42156
G1 X135.298 Y97.483 E7.45217
G1 X135.674 Y98.323 E7.48278
G1 X135.977 Y99.193 E7.51342
G1 X136.203 Y100.086 E7.54406
G1 X136.35 Y100.994 E7.57465
G1 X136.421 Y102.016 E7.60873
G1 X136.445 Y103.296 E7.65131
G1 X136.441 Y117.216 E8.11429
G1 X136.431 Y117.908 E8.13731
G1 X136.378 Y118.827 E8.16792
G1 X136.245 Y119.738 E8.19854
G1 X136.033 Y120.634 E8.22917
G1 X135.745 Y121.509 E8.25981
G1 X135.382 Y122.355 E8.29043
G1 X134.947 Y123.166 E8.32103
G1 X134.443 Y123.937 E8.35167
G1 X133.874 Y124.66 E8.38227
G1 X133.245 Y125.332 E8.41289
G1 X132.559 Y125.947 E8.44353
G1 X131.93 Y126.426 E8.46983
G1 X131.161 Y126.932 E8.50044
G1 X130.351 Y127.37 E8.53107
G1 X129.506 Y127.735 E8.56168
G1 X128.633 Y128.026 E8.59229
G1 X127.737 Y128.24 E8.62293
G1 X126.826 Y128.376 E8.65357
G1 X126.059 Y128.428 E8.67914
G1 X125.408 Y128.443 E8.70079
G1 X94.824 Y128.442 E9.71802
G1 X94.147 Y128.432 E9.74054
G1 X93.228 Y128.378 E9.77116
G1 X92.317 Y128.245 E9.80178
G1 X91.421 Y128.034 E9.8324
G1 X90.547 Y127.745 E9.86301
G1 X89.701 Y127.382 E9.89363
G1 X89.117 Y127.078 E9.91553
G1 X88.327 Y126.604 E9.94617
G1 X87.582 Y126.063 E9.9768
G1 X86.887 Y125.459 E10.00742
G1 X86.247 Y124.798 E10.03802
G1 X85.667 Y124.083 E10.06865
G1 X85.15 Y123.321 E10.09927
G1 X84.702 Y122.517 E10.12988
G1 X84.326 Y121.677 E10.16049
G1 X84.023 Y120.807 E10.19114
G1 X83.797 Y119.914 E10.22177
G1 X83.65 Y119.006 E10.25237
G1 X83.579 Y117.977 E10.28667
G1 X83.555 Y116.665 E10.33032
G1 X83.559 Y102.71 E10.79446
G0 F6000 X83.959 Y102.716
G1 F1200 X83.969 Y102.083 E10.81552
G1 X84.023 Y101.181 E10.84557
G1 X84.157 Y100.288 E10.87561
G1 X84.369 Y99.41 E10.90565
G1 X84.659 Y98.555 E10.93568
G1 X85.022 Y97.728 E10.96572
G1 X85.457 Y96.937 E10.99574
G1 X85.961 Y96.187 E11.0258
G1 X86.529 Y95.485 E11.05583
G1 X87.157 Y94.836 E11.08587
G1 X87.839 Y94.245 E11.11588
G1 X88.355 Y93.862 E11.13726
G1 X89.112 Y93.371 E11.16727
G1 X89.911 Y92.948 E11.19734
G1 X90.743 Y92.598 E11.22736
G1 X91.604 Y92.323 E11.25742
G1 X92.485 Y92.126 E11.28744
G1 X93.38 Y92.006 E11.31748
G1 X93.953 Y91.972 E11.33657
G1 X94.592 Y91.957 E11.35783
G1 X125.17 Y91.958 E12.37486
G1 X125.847 Y91.968 E12.39738
G1 X126.748 Y92.021 E12.4274
G1 X127.641 Y92.154 E12.45743
G1 X128.519 Y92.366 E12.48747
G1 X129.375 Y92.654 E12.51751
G1 X130.618 Y93.229 E12.56306
G1 X131.466 Y93.739 E12.59597
G1 X132.196 Y94.272 E12.62603
G1 X132.875 Y94.867 E12.65606
G1 X133.499 Y95.519 E12.68608
G1 X134.063 Y96.225 E12.71613
G1 X134.563 Y96.977 E12.74617
G1 X134.994 Y97.771 E12.77622
G1 X135.353 Y98.599 E12.80623
G1 X135.637 Y99.457 E12.83629
G1 X135.844 Y100.335 E12.8663
G1 X135.973 Y101.229 E12.89634
G1 X136.021 Y102.024 E12.92283
G1 X136.045 Y103.296 E12.96514
G1 X136.041 Y117.21 E13.42792
G1 X136.031 Y117.902 E13.45094
G1 X135.978 Y118.804 E13.48099
G1 X135.845 Y119.697 E13.51102
G1 X135.634 Y120.575 E13.54106
G1 X135.346 Y121.431 E13.5711
G1 X134.984 Y122.259 E13.60115
G1 X134.55 Y123.05 E13.63116
G1 X134.047 Y123.801 E13.66122
G1 X133.48 Y124.504 E13.69126
G1 X132.853 Y125.154 E13.7213
G1 X132.171 Y125.746 E13.75134
G1 X131.696 Y126.102 E13.77108
G1 X130.941 Y126.598 E13.80113
G1 X130.145 Y127.025 E13.83117
G1 X129.315 Y127.38 E13.8612
G1 X128.457 Y127.66 E13.89121
G1 X127.577 Y127.863 E13.92125
G1 X126.682 Y127.988 E13.95131
G1 X126.047 Y128.028 E13.97247
G1 X125.408 Y128.043 E13.99373
G1 X94.83 Y128.042 E15.01076
G1 X94.153 Y128.032 E15.03328
G1 X93.252 Y127.979 E15.0633
G1 X92.359 Y127.846 E15.09333
G1 X91.481 Y127.634 E15.12337
G1 X90.625 Y127.346 E15.15341
G1 X89.382 Y126.771 E15.19896
G1 X88.534 Y126.261 E15.23187
G1 X87.804 Y125.728 E15.26193
G1 X87.125 Y125.133 E15.29196
G1 X86.501 Y124.481 E15.32198
G1 X85.937 Y123.775 E15.35203
G1 X85.437 Y123.023 E15.38207
G1 X85.006 Y122.229 E15.41212
G1 X84.647 Y121.401 E15.44213
G1 X84.363 Y120.543 E15.47219
G1 X84.156 Y119.665 E15.5022
G1 X84.027 Y118.771 E15.53224
G1 X83.979 Y117.969 E15.55896
G1 X83.955 Y116.665 E15.60234
G1 X83.959 Y102.716 E16.06629
G1 F1500 E9.56629
;MESH:2x4 Lego.stl
G0 F6000 X93.492 Y102.72
G0 X105.605 Y117.569
;TYPE:WALL-OUTER
G1 F1500 E16.06629
G1 F842.1 X106.029 Y117.518 E16.08653
G1 F845.1 X106.465 Y117.57 E16.10726
G1 F882.4 X107.893 Y117.57 E16.17186
G1 F880.7 X109.321 Y117.57 E16.23657
G1 F879.1 X110.749 Y117.57 E16.3014
G1 F877.5 X112.177 Y117.57 E16.36635
G1 F875.9 X113.605 Y117.569 E16.43142
G1 F941.2 X114.037 Y117.646 E16.45003
G1 F944.9 X114.465 Y117.57 E16.46839
G1 F882.4 X115.893 Y117.57 E16.53298
G1 F880.7 X117.321 Y117.57 E16.5977
G1 F879.1 X118.749 Y117.57 E16.66253
G1 F877.5 X120.177 Y117.57 E16.72748
G1 F875.9 X121.605 Y117.569 E16.79255
G1 F939.3 X122.043 Y117.647 E16.81145
G1 F943 X122.464 Y117.57 E16.82956
G1 F877.5 X123.428 Y117.569 E16.87341
G1 F874.3 X124.392 Y117.568 E16.91742
G1 F935.7 X124.789 Y117.643 E16.93465
G1 F1039 X125.073 Y117.643 E16.94556
G1 F1098.4 X125.357 Y117.643 E16.95588
G1 F1165 X125.641 Y117.643 E16.96561
G1 F1200 X125.642 Y116.838 E16.99238
G1 F1012.7 X125.568 Y116.4 E17.00989
G1 F879.1 X125.57 Y114.49 E17.09661
G1 F812.2 X125.519 Y114 E17.12081
G1 F763.1 X125.532 Y113.94 E17.12403
G1 F821.9 X125.568 Y113.629 E17.13923
G1 F877.5 X125.569 Y111.249 E17.24748
G1 F879.1 X125.57 Y108.869 E17.35553
G1 F880.7 X125.572 Y106.489 E17.46339
G1 F845.1 X125.519 Y106.035 E17.48497
G1 F842.1 X125.57 Y105.63 E17.50432
G1 F875.9 X125.571 Y103.703 E17.59213
G1 F869.6 X125.565 Y103.55 E17.59915
G1 F1002.1 X125.644 Y103.126 E17.61633
G1 F1200 X125.644 Y102.358 E17.64188
G1 X124.838 Y102.357 E17.66868
G1 F1116.3 X124.536 Y102.388 E17.67954
G1 F954.3 X124.307 Y102.43 E17.68928
G1 F877.5 X122.395 Y102.431 E17.77624
G1 F941.2 X121.957 Y102.353 E17.79511
G1 F944.9 X121.537 Y102.43 E17.81314
G1 F880.7 X119.751 Y102.43 E17.89408
G1 F879.1 X117.965 Y102.43 E17.97516
G1 F877.5 X116.179 Y102.43 E18.0564
G1 F875.9 X114.393 Y102.431 E18.13778
G1 F842.1 X113.976 Y102.481 E18.15768
G1 F845.1 X113.535 Y102.43 E18.17865
G1 F880.7 X111.75 Y102.43 E18.25954
G1 F879.1 X109.965 Y102.43 E18.34058
G1 F877.5 X108.18 Y102.43 E18.42177
G1 F875.9 X106.395 Y102.431 E18.5031
G1 F941.2 X105.963 Y102.354 E18.52171
G1 F944.9 X105.535 Y102.43 E18.54007
G1 F880.7 X103.75 Y102.43 E18.62097
G1 F879.1 X101.965 Y102.43 E18.702
G1 F877.5 X100.18 Y102.43 E18.78319
G1 F875.9 X98.395 Y102.431 E18.86453
G1 F941.2 X97.957 Y102.353 E18.88339
G1 F944.9 X97.536 Y102.43 E18.90147
G1 F879.1 X96.572 Y102.431 E18.94524
G1 F874.3 X95.608 Y102.432 E18.98924
G1 F935.7 X95.211 Y102.357 E19.00648
G1 F1039 X94.927 Y102.357 E19.01739
G1 F1098.4 X94.643 Y102.357 E19.02771
G1 F1165 X94.359 Y102.357 E19.03744
G1 F1200 X94.359 Y103.162 E19.06421
G1 F1116.3 X94.388 Y103.465 E19.07509
G1 F954.3 X94.43 Y103.693 E19.08479
G1 F877.5 X94.432 Y105.605 E19.17176
G1 F941.2 X94.353 Y106.029 E19.19005
G1 F944.9 X94.43 Y106.465 E19.20875
G1 F880.7 X94.43 Y107.893 E19.27346
G1 F879.1 X94.43 Y109.321 E19.33829
G1 F877.5 X94.43 Y110.749 E19.40324
G1 F875.9 X94.43 Y112.177 E19.46831
G1 F874.3 X94.43 Y113.605 E19.5335
G1 F937.5 X94.353 Y114.041 E19.55235
G1 F939.3 X94.429 Y114.466 E19.57069
G1 F875.9 X94.43 Y115.429 E19.61457
G1 F872.7 X94.432 Y116.392 E19.65861
G1 F933.9 X94.356 Y116.786 E19.67576
G1 F1036.7 X94.356 Y117.072 E19.68677
G1 F1095.9 X94.356 Y117.358 E19.69719
G1 F1165 X94.355 Y117.644 E19.70699
G1 F1200 X95.162 Y117.643 E19.73383
G1 F1116.3 X95.464 Y117.612 E19.74468
G1 F954.3 X95.693 Y117.57 E19.75442
G1 F877.5 X97.605 Y117.569 E19.84138
G1 F941.2 X98.043 Y117.647 E19.86025
G1 F944.9 X98.463 Y117.57 E19.87829
G1 F882.4 X99.891 Y117.57 E19.94288
G1 F880.7 X101.319 Y117.57 E20.00759
G1 F879.1 X102.747 Y117.57 E20.07242
G1 F877.5 X104.175 Y117.57 E20.13737
G1 F875.9 X105.603 Y117.57 E20.20244
G1 F1500 E13.70244
G0 F6000 X105.603 Y117.343
G0 X113.557 Y117.253
G1 F1500 E20.20244
G0 F6000 X113.558 Y117.025
G1 F874.3 X113.299 Y117.025 E20.21427
G1 F871.1 X113.04 Y117.025 E20.22613
G1 F869.6 X112.781 Y117.025 E20.23802
G1 F868 X112.522 Y117.025 E20.24993
G1 F864.9 X112.263 Y117.025 E20.26188
G1 F863.3 X112.004 Y117.025 E20.27386
G1 F861.8 X111.745 Y117.025 E20.28585
G1 F858.7 X111.486 Y117.025 E20.29789
G1 F857.1 X111.227 Y117.025 E20.30995
G1 F855.6 X110.968 Y117.025 E20.32203
G1 F852.6 X110.709 Y117.025 E20.33416
G1 F851.1 X110.45 Y117.025 E20.3463
G1 F849.6 X110.191 Y117.025 E20.35847
G1 F846.6 X109.932 Y117.025 E20.37068
G1 F845.1 X109.673 Y117.025 E20.38291
G1 F842.1 X109.414 Y117.025 E20.39519
G1 F840.6 X109.155 Y117.025 E20.40749
G1 F839.2 X108.896 Y117.025 E20.41981
G1 F836.2 X108.637 Y117.025 E20.43217
G1 F834.8 X108.378 Y117.025 E20.44455
G1 F833.3 X108.119 Y117.025 E20.45695
G1 F830.4 X107.86 Y117.025 E20.4694
G1 F829 X107.601 Y117.025 E20.48187
G1 F827.6 X107.342 Y117.025 E20.49436
G1 F824.7 X107.083 Y117.025 E20.5069
G1 F823.3 X106.824 Y117.025 E20.51945
G1 F821.9 X106.565 Y117.025 E20.53203
G1 F819.1 X106.306 Y117.025 E20.54465
G1 F783 X106.078 Y116.876 E20.55853
G1 F750 X105.902 Y116.877 E20.5679
G1 F794.7 X105.635 Y117.025 E20.58323
G1 F845.1 X105.323 Y117.025 E20.59797
G1 F846.6 X105.011 Y117.025 E20.61268
G1 F848.1 X104.699 Y117.025 E20.62736
G1 F849.6 X104.387 Y117.025 E20.64202
G1 F851.1 X104.075 Y117.025 E20.65665
G1 F852.6 X103.763 Y117.025 E20.67125
G1 F855.6 X103.451 Y117.025 E20.68581
G1 F857.1 X103.139 Y117.025 E20.70034
G1 F858.7 X102.827 Y117.025 E20.71484
G1 F860.2 X102.515 Y117.025 E20.72931
G1 F861.8 X102.203 Y117.025 E20.74376
G1 F863.3 X101.891 Y117.025 E20.75819
G1 F864.9 X101.579 Y117.025 E20.77259
G1 F866.4 X101.267 Y117.025 E20.78696
G1 F868 X100.955 Y117.025 E20.80131
G1 F869.6 X100.643 Y117.025 E20.81563
G1 F871.1 X100.331 Y117.025 E20.82992
G1 F874.3 X100.019 Y117.025 E20.84416
G1 F875.9 X99.707 Y117.025 E20.85838
G1 F877.5 X99.395 Y117.025 E20.87257
G1 F879.1 X99.083 Y117.025 E20.88674
G1 F880.7 X98.771 Y117.025 E20.90087
G1 F882.4 X98.459 Y117.025 E20.91499
G1 F1016.9 X98.139 Y116.756 E20.93139
G1 F1200 X97.848 Y116.756 E20.94107
G1 F1126.8 X97.718 Y116.913 E20.94829
G1 F960 X97.558 Y117.025 E20.95641
G1 F884 X97.294 Y117.025 E20.96833
G1 F902.3 X97.03 Y117.025 E20.98001
G1 F921.3 X96.766 Y117.025 E20.99145
G1 F941.2 X96.502 Y117.025 E21.00264
G1 F961.9 X96.238 Y117.025 E21.0136
G1 F983.6 X95.974 Y117.025 E21.02431
G1 F1006.3 X95.71 Y117.024 E21.03478
G1 F1057.3 X95.283 Y116.784 E21.05327
G1 F1078.7 X95.086 Y116.547 E21.06468
G1 F954.3 X94.979 Y116.344 E21.07427
G1 F872.7 X94.977 Y115.405 E21.11722
G1 F875.9 X94.975 Y114.466 E21.16
G1 F1014.8 X95.241 Y114.164 E21.17583
G1 F1200 X95.245 Y113.869 E21.18564
G1 F1010.5 X94.975 Y113.558 E21.20191
G1 F874.3 X94.975 Y112.139 E21.26669
G1 F875.9 X94.975 Y110.72 E21.33135
G1 F877.5 X94.975 Y109.301 E21.39589
G1 F879.1 X94.975 Y107.882 E21.46031
G1 F880.7 X94.976 Y106.463 E21.52461
G1 F1016.9 X95.244 Y106.162 E21.54043
G1 F1098.4 X95.243 Y105.83 E21.5525
G1 F939.3 X94.975 Y105.558 E21.56872
G1 F884 X94.975 Y105.294 E21.58064
G1 F902.3 X94.975 Y105.03 E21.59232
G1 F921.3 X94.975 Y104.766 E21.60376
G1 F941.2 X94.975 Y104.502 E21.61495
G1 F961.9 X94.975 Y104.238 E21.6259
G1 F983.6 X94.975 Y103.974 E21.63662
G1 F1006.3 X94.976 Y103.71 E21.64709
G1 F1057.3 X95.216 Y103.283 E21.66558
G1 F1078.7 X95.453 Y103.086 E21.67698
G1 F956.2 X95.656 Y102.979 E21.68656
G1 F874.3 X96.596 Y102.978 E21.72947
G1 F879.1 X97.536 Y102.976 E21.77215
G1 F1016.9 X97.861 Y103.244 E21.78868
G1 F1200 X98.148 Y103.244 E21.79823
G1 F1126.8 X98.282 Y103.087 E21.80554
G1 F960 X98.442 Y102.975 E21.81366
G1 F875.9 X100.215 Y102.975 E21.89445
G1 F877.5 X101.988 Y102.975 E21.97509
G1 F879.1 X103.761 Y102.975 E22.05558
G1 F880.7 X105.534 Y102.975 E22.13593
